tools/download-figma-icons/icons/outlined-large/solar-panel.svg

<svg width="64" height="64" viewBox="0 0 64 64" fill="none" xmlns="http://www.w3.org/2000/svg">
<path fill-rule="evenodd" clip-rule="evenodd" d="M43.4014 60.9969L42.6374 43.6639H58.5514L60.7154 60.9969H43.4014ZM5.36247 43.6639H20.8404L20.0774 60.9969H3.19947L5.36247 43.6639ZM10.4385 2.99999H22.6304L21.8664 20.332H8.27546L10.4385 2.99999ZM55.6394 20.332H41.6114L40.8484 2.99999H53.4764L55.6394 20.332ZM41.7434 23.332H56.0144L58.1774 40.6639H42.5054L41.7434 23.332ZM24.8704 20.332L25.6334 2.99999H37.8444L38.6074 20.332H24.8704ZM7.90047 23.332H21.7354L20.9714 40.6639H5.73747L7.90047 23.332ZM39.6334 43.6639L40.3974 60.9969H23.0814L23.8444 43.6639H39.6334ZM23.9754 40.6639L24.7394 23.332H38.7394L39.5024 40.6639H23.9754ZM63.9034 62.3109L56.2894 1.314C56.1954 0.562999 55.5574 0 54.8004 0H9.11446C8.35747 0 7.71947 0.562999 7.62647 1.314L0.0114806 62.3109C-0.0415193 62.7379 0.0904805 63.1669 0.37648 63.4899C0.660479 63.8119 1.06948 63.9969 1.50048 63.9969H62.4154C62.8454 63.9969 63.2554 63.8119 63.5394 63.4899C63.8244 63.1669 63.9574 62.7379 63.9034 62.3109Z" fill="black"/>
</svg>

<svg width="64" height="64" viewBox="0 0 64 64" fill="none" xmlns="http://www.w3.org/2000/svg"><path fill-rule="evenodd" clip-rule="evenodd" d="m43.401 60.997-.764-17.333h15.914l2.164 17.333H43.401ZM5.362 43.664H20.84l-.763 17.333H3.2l2.163-17.333ZM10.438 3H22.63l-.764 17.332H8.276L10.437 3ZM55.64 20.332H41.611L40.848 3h12.628l2.163 17.332Zm-13.896 3h14.271l2.163 17.332H42.505l-.762-17.332Zm-16.873-3L25.633 3h12.211l.763 17.332H24.87Zm-16.97 3h13.835l-.764 17.332H5.737L7.9 23.332Zm31.733 20.332.764 17.333H23.081l.763-17.333h15.79Zm-15.658-3 .764-17.332h14l.763 17.332H23.975ZM63.903 62.31 56.29 1.314A1.5 1.5 0 0 0 54.8 0H9.114a1.5 1.5 0 0 0-1.488 1.314L.011 62.311a1.498 1.498 0 0 0 1.49 1.686h60.914a1.5 1.5 0 0 0 1.488-1.686Z" fill="currentColor"/></svg>
